X: 9496
T: Dark Is The Colour Of My True Love's Hair
R: waltz
M: 3/4
K: Adorian
|:d2|{/E}G6|B6|+slide+c4 {B} G2|{/E}=F6|+slide+^F6|+slide+{/A}G6|z6|
d2 {e} =f4|+slide+g6|a4 g2|{e} f2 d4|a4 g2|{e} f2|d4 c2|{B}d6|z6|
d2 {e} =f4|+slide+g6|a4 g2|{e} f2 d4|a4 g2|{e} f2|d4 c2|{B}d6|z4 d2|
{/E}G6|B6|+slide+c4 {B} G2|{/E}=F6|^F6|+slide+{/A}G6|z4:|

